X:968
T:Xota de Tremao
T:Jota de Tremao
R:Xota
C:Tradicional
S:Msica Tradicional Asturiana, (C) Tello & Tito. Asturies, 2001.
S:http://pagina.de/MusTradAst <telloytito@asturies.org>
A:Asturies
O:Tremao
M:3/8
L:1/8
Q:3/8=120
K:C
G|:c2B|ccB|c2B|
A2B|d2B|cBA|G2F|
[1 E2G:|[2 E2G/G/|
|:GAB|ccc|
cBA|F2F/F/|FGA|BBB|
BAG|E2G/G/:|
|:GEG|GEG|
GFE|F2F/F/|FDF|
[1 FDF|FED|E3-|E2G/G/:|
[2 FDF|FED|C3-|C2G||
